X: 5049
T: Brian The Tutor
R: reel
M: 4/4
K: Dmajor
|:"D"d3 B AGFA|"A" (3EFG AF "D" DEFG|"D"Ad"A"ce "G"dg"Em"ed|"A" ceAB c2 de|
"D"fa"A"ge "D" fdAB|"C" =c2 ed "Am" cAGE|"D"Ad"A"ce "G"dg"Em"ed|"A" cAGE "D" D4:|
|:"D"d3 e fa"A"ge|"D"f2 ed "A"ce A2|"D"af"A"ge "D"fdAB|"C" =c2 ed "Am" cAGE|
"D"D2 de "G"fa"A"ge|"D"f2 ed "A"ce A2|"D"a2"A"ge "D"fdAB|"Am" =cAGE "D" D4:|

